X:10
T:Mazurka
C:Amedeo de Laurentiis
C:Balli popolari in Abruzzo I/15
M:3/4
L:1/8
K:G
GB cd|e3dd2|e3dd2|d3cc2|z2FA Bc|\
+d3f3+ +Ac+ +A2c2+|f2e2f2|e3 dd2|z2GB cd|
e3dd2|e3dd2|d3cc2|z2d2g2|\
f2~e2d2|c2~B2A2|G3GG2|G2:|
|:GB cd|ed Bd GB|ed GB cd|dc Ac FA|EF GA Bc|\
dc Ac FA|dc FA Bc|ed Bd GB|DG AB cd|
ed Bd GB|ed GB cd|dc Ac FA|EF AB cd|\
fe dc de| fe dc BA|G3GG2|G2:|
|:z2+B2d2+|eg eg eg|eg eg eg|fe f3e|FA Bc de|\
fe f3e|FA Bc BA|+c6-e6-+|+c2e2+z2+c2e2+|
eg eg eg|eg eg eg|fe f3e|FA Bc de|\
fe dc de| fe dc BA|G3GG2|G2:|

